X:34
T:Kost'er hoed
C:Ti Jaz
S:Ti Jaz / Trad 3, 36
M:C
L:1/8
K:C
AB cB dc ~B2|cB AG A2A2|\
AB cB dc BB|cB AG A2A2:|
|:AB cB dc (3BcB|AB cd ee/e/ eg|\
e2 dc ed ~c2|Bc AB A2A2:|
%%newpage
%%center Suite de Larids - Marines (E. Grandjean)
